www/images/vertical-1.svg

<svg fill="none" height="16" viewBox="0 0 16 16" width="16" xmlns="http://www.w3.org/2000/svg"><g stroke="#f36313" stroke-linecap="round" stroke-linejoin="round"><path d="m12.5 14.3462v-12.69235c0-.63726-.5037-1.15385-1.125-1.15385h-6.75c-.62132 0-1.125.51659-1.125 1.15385v12.69235c0 .6372.50368 1.1538 1.125 1.1538h6.75c.6213 0 1.125-.5166 1.125-1.1538z"/><path d="m5.5 2.5h5"/></g></svg>

<svg width="16" height="16" viewBox="0 0 16 16" fill="none" xmlns="http://www.w3.org/2000/svg">
<path d="M12.5 14.3462V1.65385C12.5 1.01659 11.9963 0.5 11.375 0.5L4.625 0.5C4.00368 0.5 3.5 1.01659 3.5 1.65385V14.3462C3.5 14.9834 4.00368 15.5 4.625 15.5H11.375C11.9963 15.5 12.5 14.9834 12.5 14.3462Z" stroke="#F36313" stroke-linecap="round" stroke-linejoin="round"/>
<path d="M5.5 2.5H10.5" stroke="#F36313" stroke-linecap="round" stroke-linejoin="round"/>
</svg>
